X: 1
T: In Odess'  (freilach)
O: SB13
R: freylach
M: 2/4
L: 1/8
K: _B_e^F
"A"\
|: "D" FG A>c | "Cm"(3BAG "D"A2 | "D"(3FGA "Cm"(3GFE | "D"DF Ad \
|  "D" FG A>c | "Cm"(3BAG "D"A2 | "D"(3FGA "Cm"(3GFE | "D"D4 :|
K: D
"B"\
|: "D"dz A>G | F/G/ A2 F | "A7"G/F/ E2 G | "D"FG "A7"^GA \
|  "D"dz A>G | F/G/ A2 F | "A7"G/F/E- E/G/F/E/ |1 "D"D2 zA :|2 "D"DD "D7"GA ||
K: G
"C"\
|: "G"B4- | BA "D7"(3cBA | B G3 | zG A_B \
|  "Gm"^cd c_B | "Gm"^cd c_B | "D"A4 | "D7"zD GA |
|  "G"B4- | BA "D7"(3cBA | "G"B G2 _B- | "Gm"B3 A \
|  "D"AG GF | FD/F/ "Cm"_EDC |1 "D"D4 | "D7"zD GA :|2 "D"D4- | D4 |]

%%sep 1 1 500
%%sep 1 1 500

